src/assets/svg/dandelion.svg

<?xml version="1.0" encoding="UTF-8"?>
<svg viewBox="0 0 91 232" version="1.1" xmlns="http://www.w3.org/2000/svg" xmlns:xlink="http://www.w3.org/1999/xlink">
    <title>Dandelion</title>
    <g id="dandelion" fill="currentColor" fill-rule="nonzero">
        <path d="M90.7241745,143.94 C90.6141745,142.18 91.8041745,139.76 88.4641745,138.51 C84.2941745,143.94 80.0541745,149.48 75.7941745,155.02 C71.5141745,160.6 67.3841745,166.31 62.9041745,171.72 C58.6541745,176.86 55.9441745,183.47 49.0041745,187.53 C49.2341745,169.03 48.7241745,151.61 49.3341745,134.03 C64.2041745,133.14 76.7741745,129.94 84.0341745,116.79 C90.7441745,104.65 91.8341745,91.71 89.8741745,76.25 C75.4141745,94 63.6341745,111.19 49.5941745,128.27 L49.5941745,80.57 C69.9441745,78.48 85.8241745,61.29 85.8241745,40.38 C85.8441745,18.09 67.7541745,0 45.4441745,0 C23.1341745,0 5.04417453,18.09 5.04417453,40.4 C5.04417453,60.16 19.2441745,76.58 37.9841745,80.08 C39.0241745,80.38 40.0941745,80.65 41.1741745,80.91 L41.1741745,128.42 C27.5541745,110.63 15.0341745,94.28 1.86417453,77.07 C-1.66582547,87.69 0.534174532,96.82 2.59417453,105.82 C6.19417453,121.51 16.2141745,130.53 32.0941745,133.21 C34.9341745,133.69 37.9741745,132.94 41.1041745,134.84 L41.1041745,188.94 C27.4041745,171.09 14.8841745,154.78 1.34417453,137.14 C-1.08582547,152.12 0.354174532,164.8 6.57417453,176.84 C13.8141745,190.86 27.0241745,193.89 41.5341745,194.42 C41.5341745,207.68 41.5341745,219.755959 41.5341745,232.04739 C44.6039429,232.04739 46.3875122,232.04739 49.0041745,232.04739 C49.0041745,219.535959 49.1941745,207.27 49.1941745,195.47 C51.9941745,193.46 54.1141745,193.93 56.1141745,193.8 C71.8841745,192.8 82.3241745,184.92 87.4041745,169.91 C90.2541745,161.5 91.2841745,152.78 90.7141745,143.93 L90.7241745,143.94 Z" id="Yellow"></path>
    </g>
</svg>

<?xml version="1.0" encoding="UTF-8"?>
<svg id="Layer_2" data-name="Layer 2" xmlns="http://www.w3.org/2000/svg" viewBox="0 0 90.87 232.76">
  <defs>
    <style>
      .cls-1 {
        fill: #f1b722;
      }
    </style>
  </defs>
  <g id="Layer_1-2" data-name="Layer 1">
    <path id="Yellow" class="cls-1" d="m90.72,143.94c-.11-1.76,1.08-4.18-2.26-5.43-4.17,5.43-8.41,10.97-12.67,16.51-4.28,5.58-8.41,11.29-12.89,16.7-4.25,5.14-6.96,11.75-13.9,15.81.23-18.5-.28-35.92.33-53.5,14.87-.89,27.44-4.09,34.7-17.24,6.71-12.14,7.8-25.08,5.84-40.54-14.46,17.75-26.24,34.94-40.28,52.02v-47.7c20.35-2.09,36.23-19.28,36.23-40.19C85.84,18.09,67.75,0,45.44,0S5.04,18.09,5.04,40.4c0,19.76,14.2,36.18,32.94,39.68,1.04.3,2.11.57,3.19.83v47.51C27.55,110.63,15.03,94.28,1.86,77.07c-3.53,10.62-1.33,19.75.73,28.75,3.6,15.69,13.62,24.71,29.5,27.39,2.84.48,5.88-.27,9.01,1.63v54.1c-13.7-17.85-26.22-34.16-39.76-51.8-2.43,14.98-.99,27.66,5.23,39.7,7.24,14.02,20.45,17.05,34.96,17.58,0,13.26,0,25.55,0,37.84,2.55.62,5.11.66,7.66.04,0-12.51,0-25.03,0-36.83,2.8-2.01,4.92-1.54,6.92-1.67,15.77-1,26.21-8.88,31.29-23.89,2.85-8.41,3.88-17.13,3.31-25.98Z"/>
  </g>
</svg>
